X: 31003
T: Pachelbel's Frolics
R: reel
M: 4/4
K: Dmajor
|:d2dc defg|a2ab afed|e2ec BAAB|ABAG FDD2|
G3A BcBc|dcde f2ef|gfed cdef|1 fece deec:|2 fece d2de||
fdad fdad|ecac ecac|dBfB dBfB|ABAG FDD2|
G3A ~B3c|dcde f2ef|gfed cdef|fece dcde|
fdd2 fddf|ecc2 ecce|agfe fedB|ABAG FDD2|
G3A ~B3c|dcde f2ef|gfed cdef|fece d2Bc||

